static/fa/svgs/solid/arrow-up-from-water-pump.svg

<svg xmlns="http://www.w3.org/2000/svg" viewBox="0 0 576 512"><!--! Font Awesome Free 6.1.1 by @fontawesome - https://fontawesome.com License - https://fontawesome.com/license/free (Icons: CC BY 4.0, Fonts: SIL OFL 1.1, Code: MIT License) Copyright 2022 Fonticons, Inc.--><path d="M239.1 0c27.4 0 48 21.49 48 48v208H416V109.3l-25.4 25.3c-12.5 12.5-32.7 12.5-45.2 0s-12.5-32.7 0-45.23l80-79.997c12.5-12.497 32.7-12.497 45.2 0l80 79.997c12.5 12.53 12.5 32.73 0 45.23s-32.7 12.5-45.2 0L480 109.3V256h48c26.5 0 48 21.5 48 48v96c0 8-2 15.6-5.4 22.2-3.8-1.7-7.8-3.1-12.1-4.1-13.1-3-26.7-9.8-37.3-18.6-22.2-18.7-54.3-20.1-78-3.4-18 12.4-40.2 20.4-59.2 20.4-19.6 0-40.8-7.7-59.2-20.4-22-15.5-51.5-15.5-73.6 0-17.2 11.8-38 20.4-59.2 20.4-19.9 0-41.2-8-59.1-20.4-23.8-16.7-55.89-15.3-78.12 3.4-10.6 8.8-24.19 15.6-37.29 18.6-4.22 1-8.251 2.4-12.051 4.1C1.965 415.6 0 408 0 400v-96c0-26.5 21.49-48 48-48h16V48c0-26.51 21.49-48 48-48h127.1zM384 448c26.9 0 55.4-10.8 77.4-26.1h.1c11.9-8.5 28-7.8 39.2 1.7 14.3 11.9 32.5 21 50.6 25.2 17.2 4 27.9 21.3 23.9 38.5s-22.1 27.9-38.5 23.9c-24.5-5.8-44.8-16.6-58.2-25-29 15.5-61.5 25.8-94.5 25.8-31.9 0-60.6-9.9-80.4-18.9-5.9-2.6-11.1-5.3-15.6-7.7-4.5 2.4-9.7 5.1-15.6 7.7-19.8 9-48.5 18.9-80.4 18.9-33.9 0-65.5-10.3-94.5-25.8-13.38 8.4-33.71 19.2-58.23 25-17.21 4-34.417-6.7-38.428-23.9-4.011-17.2 6.69-34.5 23.898-38.5 18.1-4.2 36.22-13.3 50.57-25.2 11.15-9.5 27.29-10.2 39.19-1.7h.1c22.1 15.3 50.5 26.1 77.4 26.1 27.5 0 55-10.6 77.5-26.1 11.1-7.9 25.9-7.9 37 0 21.6 15.5 50 26.1 77.5 26.1z"/></svg>

<svg xmlns="http://www.w3.org/2000/svg" viewBox="0 0 576 512"><!--! Font Awesome Free 6.1.1 by @fontawesome - https://fontawesome.com License - https://fontawesome.com/license/free (Icons: CC BY 4.0, Fonts: SIL OFL 1.1, Code: MIT License) Copyright 2022 Fonticons, Inc. --><path d="M239.1 0C266.5 0 287.1 21.49 287.1 48V256H416V109.3L390.6 134.6C378.1 147.1 357.9 147.1 345.4 134.6C332.9 122.1 332.9 101.9 345.4 89.37L425.4 9.373C437.9-3.124 458.1-3.124 470.6 9.373L550.6 89.37C563.1 101.9 563.1 122.1 550.6 134.6C538.1 147.1 517.9 147.1 505.4 134.6L480 109.3V256H528C554.5 256 576 277.5 576 304V400C576 408 574 415.6 570.6 422.2C566.8 420.5 562.8 419.1 558.5 418.1C545.4 415.1 531.8 408.3 521.2 399.5C499 380.8 466.9 379.4 443.2 396.1C425.2 408.5 403 416.5 384 416.5C364.4 416.5 343.2 408.8 324.8 396.1C302.8 380.6 273.3 380.6 251.2 396.1C234 407.9 213.2 416.5 192 416.5C172.1 416.5 150.8 408.5 132.9 396.1C109.1 379.4 77.01 380.8 54.78 399.5C44.18 408.3 30.59 415.1 17.49 418.1C13.27 419.1 9.239 420.5 5.439 422.2C1.965 415.6 0 408 0 400V304C0 277.5 21.49 256 48 256H64V48C64 21.49 85.49 0 112 0H239.1zM384 448C410.9 448 439.4 437.2 461.4 421.9L461.5 421.9C473.4 413.4 489.5 414.1 500.7 423.6C515 435.5 533.2 444.6 551.3 448.8C568.5 452.8 579.2 470.1 575.2 487.3C571.2 504.5 553.1 515.2 536.7 511.2C512.2 505.4 491.9 494.6 478.5 486.2C449.5 501.7 417 512 384 512C352.1 512 323.4 502.1 303.6 493.1C297.7 490.5 292.5 487.8 288 485.4C283.5 487.8 278.3 490.5 272.4 493.1C252.6 502.1 223.9 512 192 512C158.1 512 126.5 501.7 97.5 486.2C84.12 494.6 63.79 505.4 39.27 511.2C22.06 515.2 4.853 504.5 .8422 487.3C-3.169 470.1 7.532 452.8 24.74 448.8C42.84 444.6 60.96 435.5 75.31 423.6C86.46 414.1 102.6 413.4 114.5 421.9L114.6 421.9C136.7 437.2 165.1 448 192 448C219.5 448 247 437.4 269.5 421.9C280.6 414 295.4 414 306.5 421.9C328.1 437.4 356.5 448 384 448H384z"/></svg>
